assets/images/car.svg

<svg width="158" height="157" viewBox="0 0 158 157" fill="none" xmlns="http://www.w3.org/2000/svg">
<circle cx="79.0622" cy="78.236" r="77.736" fill="white" stroke="#022F45"/>
<path d="M123.642 75.1978C123.642 75.1978 123.642 75.2234 123.642 75.2345L123.874 75.2638L129.524 75.9725L124.902 75.363L123.642 75.1978Z" fill="#022F45"/>
<path d="M88.0312 46.3237V92.315H25.5322V46.3237H88.0312ZM87.2345 47.1205H26.3289V91.5182H87.2345V47.1205Z" fill="#022F45"/>
<path d="M26.3288 47.1206V91.5184H38.7647C40.6857 90.1842 42.9687 89.4693 45.3076 89.4693C47.6465 89.4693 49.9295 90.1842 51.8505 91.5184H87.2344V47.1206H26.3288Z" fill="white"/>
<path d="M123.786 58.6567L130.321 75.8879L129.473 75.8071L124.909 75.3628L123.9 75.2637L123.253 75.2013L122.152 75.0911L121.34 75.014L104.748 73.4058V58.6567H123.786ZM105.247 72.9322L120.834 74.4412L122.005 74.5551L129.29 75.26L129.547 75.2857L124.733 62.6111L123.426 59.1634H105.247V72.9322Z" fill="#022F45"/>
<path d="M118.374 71.7428L118.562 71.9485L120.82 74.4415L121.293 74.9629L121.301 75.0143L123.739 91.5405L123.849 92.2895L124.631 92.1757L124.539 91.5441L122.112 75.0914L122.042 74.6104L121.991 74.5553L119.626 71.9485L118.958 71.2104L118.374 71.7428Z" fill="#022F45"/>
<path d="M97.4202 55.7598V85.6618H98.2096V56.5528H114.828L117.427 58.5723L117.537 58.6567L117.871 58.9174L118.209 59.1781L118.492 59.3984L118.664 59.1781L118.866 58.9174L118.977 58.7742L118.826 58.6567L116.355 56.7364L115.099 55.7598H97.4202Z" fill="#022F45"/>
<path d="M117.32 58.9175H120.147V71.9482H117.32V58.9175Z" fill="#022F45"/>
<path d="M91.9122 91.5952V65.9523C91.9122 61.6931 91.9122 57.434 91.9122 53.0464H121.917C122.081 53.293 122.226 53.552 122.35 53.8211C125.288 61.796 128.207 69.7708 131.107 77.7457C131.321 78.3671 131.43 79.0198 131.43 79.677C131.469 83.8896 131.501 88.1022 131.526 92.3149H131.562L131.533 93.6624C131.533 95.5202 131.543 97.3781 131.562 99.2359C131.53 99.8057 131.467 100.373 131.372 100.936H118.466C117.823 100.936 117.177 100.936 116.527 100.936H30.3677C29.6334 100.936 28.9908 100.936 28.3667 100.936H25.5322V91.5952H91.9122ZM123.099 91.5328H123.738H130.476V89.1058L128.827 88.5514C128.728 86.1024 128.761 83.6424 128.827 81.153L130.461 80.7858C130.902 79.0565 130.461 77.5878 129.543 75.9759L129.484 75.8107L129.286 75.2636L124.733 62.6111L123.947 60.4264L123.305 58.642L123.257 58.5098C122.872 57.4707 122.505 56.461 122.115 55.4476L121.748 54.4306L121.532 53.8468H93.0504C92.6832 55.444 92.6025 83.378 92.9953 85.6618H97.8125L98.2091 85.6287L98.8773 85.5773C101.492 85.5972 104.077 86.1335 106.484 87.1555C108.891 88.1776 111.073 89.6652 112.903 91.5328H123.099Z" fill="#022F45"/>
<path d="M122.111 75.0947L124.538 91.5438H130.475V89.1168L128.827 88.5624C128.728 86.1134 128.761 83.6534 128.827 81.164L130.461 80.7968C130.901 79.0675 130.461 77.5988 129.543 75.9869L123.892 75.2783L123.246 75.2159L122.111 75.0947Z" fill="white"/>
<path d="M119.626 71.9483L121.991 74.5552L129.275 75.2601L124.734 62.6259L123.426 59.1782H120.148V71.9483H119.626Z" fill="#9AACB5"/>
<path d="M105.233 59.1782V72.9323L120.819 74.4413L118.561 71.9483H117.32V59.1782H105.233Z" fill="#9AACB5"/>
<path d="M98.2092 56.5532V85.6292L98.8774 85.5777C101.492 85.5976 104.078 86.1339 106.485 87.1559C108.892 88.178 111.073 89.6656 112.903 91.5332H123.099H123.738L121.3 75.0107L104.708 73.4025V58.6571H117.537L117.427 58.5726L114.827 56.5532H98.2092Z" fill="white"/>
<path d="M92.9878 85.6619H97.4195V55.7599H115.099L116.354 56.7365L118.833 58.6568H123.29L123.242 58.5283L121.741 54.4344L121.524 53.8506H93.0429C92.6573 55.4441 92.5949 83.3781 92.9878 85.6619Z" fill="white"/>
<path d="M45.3079 96.1592C46.2519 96.1592 47.1748 96.4391 47.9597 96.9636C48.7447 97.4881 49.3564 98.2336 49.7177 99.1057C50.079 99.9779 50.1735 100.938 49.9893 101.864C49.8052 102.789 49.3506 103.64 48.683 104.307C48.0155 104.975 47.165 105.43 46.2391 105.614C45.3132 105.798 44.3535 105.703 43.4813 105.342C42.6091 104.981 41.8636 104.369 41.3391 103.584C40.8147 102.799 40.5347 101.876 40.5347 100.932C40.5347 99.6664 41.0376 98.4524 41.9327 97.5572C42.8279 96.6621 44.042 96.1592 45.3079 96.1592ZM45.3079 104.828C46.0762 104.828 46.8272 104.6 47.4661 104.173C48.1049 103.746 48.6028 103.14 48.8968 102.43C49.1908 101.72 49.2678 100.939 49.1179 100.186C48.968 99.432 48.598 98.7398 48.0547 98.1965C47.5115 97.6532 46.8193 97.2833 46.0657 97.1334C45.3122 96.9835 44.5311 97.0604 43.8213 97.3544C43.1115 97.6485 42.5048 98.1464 42.0779 98.7852C41.6511 99.424 41.4233 100.175 41.4233 100.943C41.4228 101.454 41.5229 101.96 41.7178 102.432C41.9128 102.904 42.1988 103.332 42.5595 103.694C42.9202 104.055 43.3486 104.342 43.8202 104.538C44.2917 104.734 44.7973 104.835 45.3079 104.835V104.828Z" fill="white"/>
<path d="M45.3082 89.9175C47.4868 89.9175 49.6164 90.5635 51.4278 91.7738C53.2393 92.9842 54.6511 94.7045 55.4848 96.7172C56.3185 98.73 56.5366 100.945 56.1116 103.081C55.6866 105.218 54.6375 107.181 53.097 108.721C51.5565 110.262 49.5939 111.311 47.4572 111.736C45.3205 112.161 43.1057 111.943 41.093 111.109C39.0803 110.275 37.3599 108.863 36.1496 107.052C34.9393 105.241 34.2932 103.111 34.2932 100.932C34.2991 98.0129 35.4614 95.2146 37.5259 93.1501C39.5903 91.0857 42.3887 89.9233 45.3082 89.9175ZM45.3082 111.518C48.1118 111.515 50.7998 110.4 52.7822 108.418C54.7647 106.435 55.8797 103.747 55.8826 100.944C55.8822 99.2538 55.4761 97.5888 54.6986 96.0887C53.921 94.5885 52.7947 93.2969 51.4142 92.3224C51.0432 92.0518 50.6543 91.8065 50.2503 91.5881C50.2021 91.5588 50.1517 91.533 50.0998 91.511C48.6162 90.7533 46.9741 90.3582 45.3082 90.3582C43.6424 90.3582 42.0003 90.7533 40.5167 91.511C40.4647 91.533 40.4144 91.5588 40.3662 91.5881C39.9622 91.8065 39.5733 92.0518 39.2023 92.3224C37.8218 93.2969 36.6955 94.5885 35.9179 96.0887C35.1404 97.5888 34.7343 99.2538 34.7338 100.944C34.7368 103.747 35.8518 106.435 37.8342 108.418C39.8167 110.4 42.5046 111.515 45.3082 111.518Z" fill="white"/>
<path d="M37.7437 92.3152C38.0337 92.0618 38.3385 91.8232 38.6506 91.5809L38.7644 91.5037C40.6854 90.1696 42.9684 89.4546 45.3073 89.4546C47.6462 89.4546 49.9292 90.1696 51.8502 91.5037L51.964 91.5809C53.4531 92.6448 54.6669 94.0486 55.5047 95.6756C56.3425 97.3027 56.7801 99.1062 56.7812 100.936C56.7275 103.943 55.4951 106.809 53.3496 108.917C51.204 111.024 48.3167 112.205 45.3091 112.205C42.3016 112.205 39.4143 111.024 37.2687 108.917C35.1231 106.809 33.8908 103.943 33.837 100.936C33.8364 99.3039 34.1846 97.6902 34.8583 96.2034C35.5321 94.7165 36.5158 93.3909 37.7437 92.3152ZM34.7329 100.944C34.7329 103.748 35.847 106.438 37.8301 108.421C39.8131 110.404 42.5028 111.518 45.3073 111.518C48.1118 111.518 50.8014 110.404 52.7845 108.421C54.7676 106.438 55.8817 103.748 55.8817 100.944C55.8812 99.2539 55.4752 97.5889 54.6976 96.0888C53.92 94.5886 52.7937 93.297 51.4133 92.3225C51.0422 92.0519 50.6534 91.8066 50.2494 91.5882C50.2011 91.5589 50.1508 91.5331 50.0988 91.5111C48.6153 90.7534 46.9732 90.3583 45.3073 90.3583C43.6414 90.3583 41.9993 90.7534 40.5158 91.5111C40.4638 91.5331 40.4135 91.5589 40.3652 91.5882C39.9612 91.8066 39.5724 92.0519 39.2013 92.3225C37.8209 93.297 36.6945 94.5886 35.917 96.0888C35.1394 97.5889 34.7333 99.2539 34.7329 100.944Z" fill="#022F45"/>
<path d="M39.2015 92.3149C39.5725 92.0442 39.9614 91.7989 40.3654 91.5805C40.4136 91.5512 40.4639 91.5254 40.5159 91.5034C41.9995 90.7457 43.6416 90.3506 45.3074 90.3506C46.9733 90.3506 48.6154 90.7457 50.099 91.5034C50.1509 91.5254 50.2013 91.5512 50.2495 91.5805C50.6535 91.7989 51.0424 92.0442 51.4134 92.3149C52.7939 93.2893 53.9202 94.5809 54.6978 96.0811C55.4753 97.5813 55.8814 99.2462 55.8818 100.936C55.8818 103.74 54.7678 106.43 52.7847 108.413C50.8016 110.396 48.1119 111.51 45.3074 111.51C42.5029 111.51 39.8133 110.396 37.8302 108.413C35.8471 106.43 34.733 103.74 34.733 100.936C34.7335 99.2462 35.1396 97.5813 35.9171 96.0811C36.6947 94.5809 37.821 93.2893 39.2015 92.3149ZM45.3074 105.724C46.2515 105.724 47.1743 105.444 47.9593 104.919C48.7442 104.395 49.356 103.649 49.7173 102.777C50.0785 101.905 50.1731 100.945 49.9889 100.019C49.8047 99.0935 49.3501 98.243 48.6826 97.5755C48.015 96.9079 47.1645 96.4533 46.2386 96.2692C45.3127 96.085 44.353 96.1795 43.4808 96.5408C42.6087 96.902 41.8632 97.5138 41.3387 98.2988C40.8142 99.0837 40.5343 100.007 40.5343 100.951C40.5343 102.217 41.0372 103.431 41.9323 104.326C42.8274 105.221 44.0415 105.724 45.3074 105.724Z" fill="white"/>
<path d="M45.3079 96.1592C46.2519 96.1592 47.1748 96.4391 47.9597 96.9636C48.7447 97.4881 49.3564 98.2336 49.7177 99.1057C50.079 99.9779 50.1735 100.938 49.9893 101.864C49.8052 102.789 49.3506 103.64 48.683 104.307C48.0155 104.975 47.165 105.43 46.2391 105.614C45.3132 105.798 44.3535 105.703 43.4813 105.342C42.6091 104.981 41.8636 104.369 41.3391 103.584C40.8147 102.799 40.5347 101.876 40.5347 100.932C40.5347 99.6664 41.0376 98.4524 41.9327 97.5572C42.8279 96.6621 44.042 96.1592 45.3079 96.1592ZM45.3079 104.828C46.0762 104.828 46.8272 104.6 47.4661 104.173C48.1049 103.746 48.6028 103.14 48.8968 102.43C49.1908 101.72 49.2678 100.939 49.1179 100.186C48.968 99.432 48.598 98.7398 48.0547 98.1965C47.5115 97.6532 46.8193 97.2833 46.0657 97.1334C45.3122 96.9835 44.5311 97.0604 43.8213 97.3544C43.1115 97.6485 42.5048 98.1464 42.0779 98.7852C41.6511 99.424 41.4233 100.175 41.4233 100.943C41.4228 101.454 41.5229 101.96 41.7178 102.432C41.9128 102.904 42.1988 103.332 42.5595 103.694C42.9202 104.055 43.3486 104.342 43.8202 104.538C44.2917 104.734 44.7973 104.835 45.3079 104.835V104.828Z" fill="#022F45"/>
<path d="M41.4685 101.577C41.1247 99.4597 42.5628 97.4643 44.6805 97.1206C46.7982 96.7768 48.7936 98.2149 49.1373 100.333C49.4811 102.45 48.043 104.446 45.9253 104.789C43.8076 105.133 41.8122 103.695 41.4685 101.577Z" fill="white"/>
<path d="M101.654 96.1592C102.598 96.1592 103.52 96.4391 104.305 96.9636C105.09 97.4881 105.702 98.2336 106.063 99.1057C106.425 99.9779 106.519 100.938 106.335 101.864C106.151 102.789 105.696 103.64 105.029 104.307C104.361 104.975 103.511 105.43 102.585 105.614C101.659 105.798 100.699 105.703 99.827 105.342C98.9548 104.981 98.2093 104.369 97.6848 103.584C97.1604 102.799 96.8804 101.876 96.8804 100.932C96.8804 99.6664 97.3833 98.4524 98.2785 97.5572C99.1736 96.6621 100.388 96.1592 101.654 96.1592ZM101.654 104.828C102.422 104.828 103.173 104.6 103.812 104.173C104.451 103.746 104.948 103.14 105.243 102.43C105.537 101.72 105.613 100.939 105.464 100.186C105.314 99.432 104.944 98.7398 104.4 98.1965C103.857 97.6532 103.165 97.2833 102.411 97.1334C101.658 96.9835 100.877 97.0604 100.167 97.3544C99.4572 97.6485 98.8505 98.1464 98.4236 98.7852C97.9968 99.424 97.769 100.175 97.769 100.943C97.769 101.974 98.178 102.963 98.9063 103.693C99.6346 104.422 100.623 104.833 101.654 104.835V104.828Z" fill="white"/>
<path d="M101.653 89.9175C103.832 89.9175 105.961 90.5635 107.773 91.7738C109.584 92.9842 110.996 94.7045 111.829 96.7172C112.663 98.73 112.881 100.945 112.456 103.081C112.031 105.218 110.982 107.181 109.442 108.721C107.901 110.262 105.939 111.311 103.802 111.736C101.665 112.161 99.4504 111.943 97.4377 111.109C95.425 110.275 93.7047 108.863 92.4943 107.052C91.284 105.241 90.638 103.111 90.638 100.932C90.6428 98.0126 91.8049 95.2137 93.8695 93.1491C95.9342 91.0844 98.7331 89.9223 101.653 89.9175ZM101.653 111.518C103.745 111.519 105.791 110.899 107.531 109.737C109.271 108.575 110.628 106.923 111.429 104.99C112.23 103.057 112.44 100.929 112.032 98.877C111.624 96.8248 110.616 94.9396 109.136 93.46C107.657 91.9804 105.772 90.9729 103.719 90.5648C101.667 90.1568 99.5399 90.3666 97.6069 91.1677C95.6739 91.9688 94.0218 93.3251 92.8598 95.0653C91.6977 96.8054 91.0778 98.851 91.0786 100.944C91.0815 103.747 92.1965 106.435 94.179 108.418C96.1614 110.4 98.8494 111.515 101.653 111.518Z" fill="white"/>
<path d="M101.653 89.4692C103.923 89.4663 106.143 90.1368 108.032 91.3958C109.92 92.6548 111.393 94.4458 112.264 96.5421C113.135 98.6384 113.364 100.946 112.923 103.173C112.482 105.399 111.39 107.445 109.786 109.051C108.182 110.657 106.138 111.752 103.912 112.196C101.685 112.64 99.3776 112.413 97.2801 111.545C95.1827 110.677 93.3898 109.207 92.1284 107.319C90.867 105.432 90.1937 103.213 90.1937 100.943C90.1937 97.9027 91.4005 94.9864 93.5491 92.8351C95.6977 90.6837 98.6124 89.4731 101.653 89.4692ZM101.653 111.518C103.745 111.518 105.791 110.898 107.531 109.736C109.271 108.574 110.628 106.922 111.429 104.989C112.23 103.056 112.44 100.929 112.032 98.8767C111.624 96.8245 110.616 94.9393 109.136 93.4597C107.657 91.9801 105.772 90.9726 103.719 90.5645C101.667 90.1565 99.5399 90.3663 97.6069 91.1674C95.6738 91.9685 94.0218 93.3248 92.8598 95.065C91.6977 96.8051 91.0778 98.8507 91.0786 100.943C91.0815 103.747 92.1965 106.435 94.1789 108.417C96.1614 110.4 98.8493 111.515 101.653 111.518Z" fill="#022F45"/>
<path d="M101.654 90.3652C103.746 90.3645 105.791 90.9843 107.531 92.1462C109.272 93.3081 110.628 94.9599 111.429 96.8927C112.23 98.8255 112.44 100.953 112.033 103.005C111.625 105.057 110.618 106.942 109.138 108.422C107.659 109.902 105.774 110.909 103.722 111.318C101.67 111.726 99.5432 111.517 97.6101 110.717C95.677 109.916 94.0247 108.56 92.8622 106.821C91.6997 105.081 91.0792 103.036 91.0792 100.943C91.0821 98.1394 92.197 95.451 94.1794 93.468C96.1617 91.4849 98.8497 90.3691 101.654 90.3652ZM101.654 105.724C102.598 105.724 103.52 105.444 104.305 104.919C105.09 104.395 105.702 103.649 106.063 102.777C106.425 101.905 106.519 100.945 106.335 100.019C106.151 99.0935 105.696 98.243 105.029 97.5755C104.361 96.908 103.511 96.4534 102.585 96.2692C101.659 96.085 100.699 96.1795 99.827 96.5408C98.9548 96.9021 98.2093 97.5139 97.6849 98.2988C97.1604 99.0837 96.8804 100.007 96.8804 100.951C96.8804 102.217 97.3833 103.431 98.2785 104.326C99.1736 105.221 100.388 105.724 101.654 105.724Z" fill="white"/>
<path d="M101.654 96.1592C102.598 96.1592 103.52 96.4391 104.305 96.9636C105.09 97.4881 105.702 98.2336 106.063 99.1057C106.425 99.9779 106.519 100.938 106.335 101.864C106.151 102.789 105.696 103.64 105.029 104.307C104.361 104.975 103.511 105.43 102.585 105.614C101.659 105.798 100.699 105.703 99.827 105.342C98.9548 104.981 98.2093 104.369 97.6848 103.584C97.1604 102.799 96.8804 101.876 96.8804 100.932C96.8804 99.6664 97.3833 98.4524 98.2785 97.5572C99.1736 96.6621 100.388 96.1592 101.654 96.1592ZM101.654 104.828C102.422 104.828 103.173 104.6 103.812 104.173C104.451 103.746 104.948 103.14 105.243 102.43C105.537 101.72 105.613 100.939 105.464 100.186C105.314 99.432 104.944 98.7398 104.4 98.1965C103.857 97.6532 103.165 97.2833 102.411 97.1334C101.658 96.9835 100.877 97.0604 100.167 97.3544C99.4572 97.6485 98.8505 98.1464 98.4236 98.7852C97.9968 99.424 97.769 100.175 97.769 100.943C97.769 101.974 98.178 102.963 98.9063 103.693C99.6346 104.422 100.623 104.833 101.654 104.835V104.828Z" fill="#022F45"/>
<path d="M98.905 103.69C97.3879 102.173 97.3879 99.7131 98.905 98.196C100.422 96.679 102.882 96.679 104.399 98.196C105.916 99.7131 105.916 102.173 104.399 103.69C102.882 105.207 100.422 105.207 98.905 103.69Z" fill="white"/>
</svg>

<svg width="158" height="157" fill="none" xmlns="http://www.w3.org/2000/svg"><circle cx="79.062" cy="78.236" r="77.736" fill="#fff" stroke="#022F45"/><path d="M123.642 75.198v.037l.232.029 5.65.709-4.622-.61-1.26-.165ZM88.031 46.324v45.991H25.532V46.324h62.5Zm-.797.797H26.33v44.397h60.905V47.12Z" fill="#022F45"/><path d="M26.329 47.12v44.398h12.436a11.47 11.47 0 0 1 13.085 0h35.384V47.121H26.33Z" fill="#fff"/><path d="m123.786 58.657 6.535 17.23-.848-.08-4.564-.444-1.009-.1-.647-.062-1.101-.11-.812-.077-16.592-1.608v-14.75h19.038Zm-18.539 14.275 15.587 1.51 1.171.113 7.285.705.257.026-4.814-12.675-1.307-3.448h-18.179v13.77Z" fill="#022F45"/><path d="m118.374 71.743.188.206 2.258 2.493.473.52.008.052 2.438 16.526.11.75.782-.114-.092-.632-2.427-16.453-.07-.48-.051-.056-2.365-2.607-.668-.738-.584.533ZM97.42 55.76v29.902h.79v-29.11h16.618l2.599 2.02.11.085.334.26.338.261.283.22.172-.22.202-.26.111-.144-.151-.117-2.471-1.92-1.256-.977H97.42Z" fill="#022F45"/><path d="M117.32 58.917h2.827v13.031h-2.827v-13.03Z" fill="#022F45"/><path d="M91.912 91.595V53.046h30.005c.164.247.309.506.433.775a6063.03 6063.03 0 0 1 8.757 23.925c.214.621.323 1.274.323 1.931.039 4.213.071 8.425.096 12.638h.036l-.029 1.347c0 1.858.01 3.716.029 5.574-.032.57-.095 1.137-.19 1.7H25.532v-9.34h66.38Zm31.187-.062H130.476v-2.427l-1.649-.555c-.099-2.449-.066-4.909 0-7.398l1.634-.367c.441-1.73 0-3.198-.918-4.81l-.059-.165-.198-.547-4.553-12.653-.786-2.185-.642-1.784-.048-.132c-.385-1.04-.752-2.049-1.142-3.062l-.367-1.017-.216-.584H93.05c-.367 1.597-.447 29.531-.055 31.815h4.817l.397-.033.668-.052a19.85 19.85 0 0 1 14.026 5.956h10.196Z" fill="#022F45"/><path d="m122.111 75.095 2.427 16.449h5.937v-2.427l-1.648-.555c-.099-2.449-.066-4.909 0-7.398l1.634-.367c.44-1.73 0-3.198-.918-4.81l-5.651-.709-.646-.062-1.135-.121Z" fill="#fff"/><path d="m119.626 71.948 2.365 2.607 7.284.705-4.541-12.634-1.308-3.448h-3.278v12.77h-.522Z" fill="#9AACB5"/><path d="M105.233 59.178v13.754l15.586 1.51-2.258-2.494h-1.241v-12.77h-12.087Z" fill="#9AACB5"/><path d="M98.21 56.553V85.63l.667-.051a19.854 19.854 0 0 1 14.026 5.955H123.738L121.3 75.011l-16.592-1.608V58.657h12.829l-.11-.084-2.6-2.02H98.209Z" fill="#fff"/><path d="M92.988 85.662h4.431V55.76h17.68l1.255.977 2.479 1.92h4.457l-.048-.129-1.501-4.094-.217-.583H93.043c-.386 1.593-.448 29.527-.055 31.81ZM45.308 96.16a4.773 4.773 0 1 1 0 9.545 4.773 4.773 0 0 1 0-9.546Zm0 8.668a3.884 3.884 0 1 0-3.59-2.396 3.894 3.894 0 0 0 2.102 2.106c.472.196.977.297 1.488.297v-.007Z" fill="#fff"/><path d="M45.308 89.918a11.015 11.015 0 1 1-11.015 11.014 11.037 11.037 0 0 1 11.015-11.014Zm0 21.6a10.587 10.587 0 0 0 10.575-10.574 10.556 10.556 0 0 0-4.469-8.622 10.234 10.234 0 0 0-1.314-.811 10.535 10.535 0 0 0-9.583 0 10.234 10.234 0 0 0-1.314.811 10.556 10.556 0 0 0-4.47 8.622 10.588 10.588 0 0 0 10.575 10.574Z" fill="#fff"/><path d="M37.744 92.315c.29-.253.595-.492.907-.734l.113-.077a11.47 11.47 0 0 1 13.086 0l.114.077a11.506 11.506 0 0 1 4.817 9.355 11.476 11.476 0 0 1-11.472 11.269 11.476 11.476 0 0 1-11.472-11.269 11.457 11.457 0 0 1 3.907-8.62Zm-3.011 8.629a10.575 10.575 0 0 0 21.149 0 10.556 10.556 0 0 0-4.469-8.621 10.243 10.243 0 0 0-1.314-.812 10.534 10.534 0 0 0-9.583 0 10.243 10.243 0 0 0-1.314.811 10.556 10.556 0 0 0-4.47 8.622Z" fill="#022F45"/><path d="M39.202 92.315a10.22 10.22 0 0 1 1.314-.812 10.535 10.535 0 0 1 9.583 0 10.22 10.22 0 0 1 1.314.811 10.555 10.555 0 0 1 4.469 8.622 10.574 10.574 0 0 1-21.149 0 10.558 10.558 0 0 1 4.469-8.621Zm6.105 13.409a4.77 4.77 0 0 0 4.41-2.947 4.774 4.774 0 1 0-4.41 2.947Z" fill="#fff"/><path d="M45.308 96.16a4.773 4.773 0 1 1 0 9.545 4.773 4.773 0 0 1 0-9.546Zm0 8.668a3.884 3.884 0 1 0-3.59-2.396 3.894 3.894 0 0 0 2.102 2.106c.472.196.977.297 1.488.297v-.007Z" fill="#022F45"/><path d="M41.468 101.577a3.884 3.884 0 1 1 7.669-1.244 3.884 3.884 0 0 1-7.669 1.244ZM101.654 96.16a4.77 4.77 0 0 1 4.409 2.946 4.77 4.77 0 0 1-3.478 6.508 4.777 4.777 0 0 1-4.9-2.03 4.775 4.775 0 0 1 3.969-7.425Zm0 8.668a3.884 3.884 0 1 0-2.748-1.135 3.895 3.895 0 0 0 2.748 1.142v-.007Z" fill="#fff"/><path d="M101.653 89.918a11.017 11.017 0 0 1 10.176 6.8 11.012 11.012 0 0 1-2.387 12.003 11.013 11.013 0 0 1-16.948-1.669 11.015 11.015 0 0 1-1.856-6.12 11.033 11.033 0 0 1 11.015-11.014Zm0 21.6a10.576 10.576 0 0 0 10.379-12.641 10.576 10.576 0 0 0-8.313-8.312 10.577 10.577 0 1 0-2.066 20.953Z" fill="#fff"/><path d="M101.653 89.47a11.476 11.476 0 0 1 11.27 13.703 11.475 11.475 0 1 1-11.27-13.704Zm0 22.048a10.585 10.585 0 0 0 9.776-6.529 10.578 10.578 0 1 0-20.35-4.046 10.584 10.584 0 0 0 10.574 10.575Z" fill="#022F45"/><path d="M101.654 90.365a10.576 10.576 0 0 1 9.775 6.528 10.577 10.577 0 0 1-13.819 13.824 10.585 10.585 0 0 1-6.53-9.774 10.589 10.589 0 0 1 10.574-10.578Zm0 15.359a4.77 4.77 0 0 0 4.681-5.705 4.775 4.775 0 0 0-6.508-3.478 4.773 4.773 0 0 0 1.827 9.183Z" fill="#fff"/><path d="M101.654 96.16a4.77 4.77 0 0 1 4.409 2.946 4.77 4.77 0 0 1-3.478 6.508 4.777 4.777 0 0 1-4.9-2.03 4.775 4.775 0 0 1 3.969-7.425Zm0 8.668a3.884 3.884 0 1 0-2.748-1.135 3.895 3.895 0 0 0 2.748 1.142v-.007Z" fill="#022F45"/><path d="M98.905 103.69a3.885 3.885 0 1 1 5.494-5.494 3.885 3.885 0 0 1-5.494 5.494Z" fill="#fff"/></svg>
